X: 1
T:B-Schottisch
S:collection Elisabeth und Christoph Huspeka
Z:abc transcription Simon Wascher
N:please mail errors to: simon.wascher@chello.at
M:2/4
L:1/16
K:G
B2Bc d2G2|B2A2 A2B2|c2cd e2F2|A2G2 G2A2|
B2Bc d2G2|B2A2 A2B2|c2ce d2F2|G2B2G4:|
|:d2FA c2e2|d4B2d2|c4A2c2|B2A2G4|
d2FA c2e2|d4B2d2|c2B2 c2A2|G2B2G4:|
K:C
c4G2c2|e4c2e2|d4B2d2|c2d2 e2G2|
c4G2c2|e4c2e2|d2A2d4|c8:|
